X:4
T:The Auld Town of Ayr
R:strathspey
O:19th century Scotland
D:Allie Bennett, It's About Time
Z:Paul Stewart Cranford (P.S.C.), <http://www.cranfordpub.com>
L:1/8
M:C
Q:288
K:D
E|D<DFA ({B/c/}d2) d>c|B/A/B/c/ d>B A<FF<d|D<DFA ({B/c/}d2) d>f|(3efg (3gfe d<BB<d|
D<DFA ({B/c/}d2) d>c|B/A/B/c/ d>B A<FF<A|B/A/B/c/ d>B A<FF<d|A>FF<D E2 E<F||
||D>dF>d A>FF>A|B/A/B/c/ d>B A<FF<d|D>dF>d A>FF>A|{Bc}d>BA<F E2 E<F|
D>dF>d A>FF>A|B>AB<c d2 d>f|(3efg (3gfe dFF<D E2 E<F|]
